X: 8
T: No_107_You_Desire_Vainly.krn
%%abc-version 2.0
%%abcx-abcm2ps-target-version 5.9.1 (29 Sep 2008)
%%abc-creator hum2abc beta
%%abcx-conversion-date 2020/08/10 18:54:57
%%humdrum-veritas 284745609
%%humdrum-veritas-data 513560819
%%linebreak <none>
%%barnumbers 0
L: 1/8
M: 2/4
K: Gb clef=bass
EE [I:setbarnb 1]| 
(3F-FG (3F-FG | 
E4- | 
E2DB, | 
EDB,2 | 
A,4- | 
A,4- | 
A,2EB, | 
E2E2 ||  
[M:3/4]B,4B,A, ||  
[M:2/4]B,A,G,2 | 
E,4- | 
E,4 | 
E,2B,2 ||  
[M:3/4]A,6 ||  
[M:2/4]E2B,2 | 
A,4 ||  
[M:3/4]A,G, A,G, G,E, ||  
[M:2/4]E,4- | 
E,2z2 |]  


